src/assets/contato/whatsapp-white.svg

<svg width="26" height="26" viewBox="0 0 26 26" fill="none" xmlns="http://www.w3.org/2000/svg">
<g clip-path="url(#clip0_39_36)">
<path d="M0.0617676 26L1.88935 19.3234C0.761601 17.3691 0.169018 15.1537 0.170101 12.8819C0.173351 5.77958 5.95293 0 13.0542 0C16.5003 0.00108333 19.7351 1.34333 22.1683 3.77867C24.6003 6.214 25.9394 9.451 25.9383 12.8938C25.935 19.9973 20.1554 25.7768 13.0542 25.7768C10.8983 25.7758 8.77393 25.2352 6.89218 24.2082L0.0617676 26ZM7.20852 21.8758C9.02418 22.9537 10.7575 23.5993 13.0498 23.6004C18.9518 23.6004 23.7597 18.7969 23.7629 12.8917C23.7651 6.9745 18.98 2.1775 13.0585 2.17533C7.15218 2.17533 2.3476 6.97883 2.34543 12.883C2.34435 15.2934 3.05068 17.0982 4.23693 18.9865L3.15468 22.9385L7.20852 21.8758ZM19.5444 15.9564C19.4643 15.8221 19.2498 15.7419 18.9269 15.5805C18.6052 15.4191 17.0224 14.6402 16.7267 14.5329C16.432 14.4257 16.2175 14.3715 16.0019 14.6943C15.7874 15.0161 15.1699 15.7419 14.9825 15.9564C14.7951 16.1709 14.6066 16.198 14.2848 16.0366C13.9631 15.8752 12.9253 15.5361 11.6957 14.4387C10.7391 13.585 10.0924 12.5309 9.90493 12.2081C9.71752 11.8863 9.88543 11.7119 10.0458 11.5516C10.1909 11.4075 10.3675 11.1757 10.5289 10.9872C10.6925 10.8008 10.7456 10.6665 10.8539 10.4509C10.9612 10.2364 10.9081 10.0479 10.8269 9.8865C10.7456 9.72617 10.1021 8.14125 9.83452 7.49667C9.57235 6.86942 9.30693 6.95392 9.10977 6.94417L8.49227 6.93333C8.27777 6.93333 7.92893 7.0135 7.63427 7.33633C7.3396 7.65917 6.5076 8.437 6.5076 10.0219C6.5076 11.6068 7.66135 13.1376 7.82168 13.3521C7.9831 13.5666 10.0913 16.8188 13.3207 18.213C14.0888 18.5445 14.6889 18.7428 15.1558 18.8912C15.9272 19.136 16.6292 19.1013 17.1838 19.019C17.8024 18.9269 19.0884 18.2401 19.357 17.4883C19.6257 16.7353 19.6257 16.0907 19.5444 15.9564Z" fill="white"/>
</g>
<defs>
<clipPath id="clip0_39_36">
<rect width="26" height="26" fill="white"/>
</clipPath>
</defs>
</svg>

<svg xmlns="http://www.w3.org/2000/svg" width="26" height="26" fill="none"><g clip-path="url(#a)"><path fill="#fff" d="m.062 26 1.827-6.677A12.856 12.856 0 0 1 .17 12.882C.173 5.78 5.953 0 13.054 0a12.801 12.801 0 0 1 9.114 3.779 12.81 12.81 0 0 1 3.77 9.115c-.003 7.103-5.783 12.883-12.884 12.883a12.89 12.89 0 0 1-6.162-1.569L.062 26Zm7.147-4.124c1.815 1.078 3.549 1.723 5.84 1.724 5.903 0 10.71-4.803 10.714-10.708.002-5.917-4.783-10.714-10.705-10.717-5.906 0-10.71 4.804-10.713 10.708 0 2.41.706 4.215 1.892 6.104l-1.082 3.952 4.054-1.063Zm12.335-5.92c-.08-.134-.294-.214-.617-.375-.322-.162-1.905-.94-2.2-1.048-.295-.107-.51-.162-.725.161-.215.322-.832 1.048-1.02 1.262-.187.215-.375.242-.697.08-.322-.16-1.36-.5-2.59-1.597-.956-.854-1.603-1.908-1.79-2.23-.187-.323-.02-.497.14-.657.146-.144.322-.376.484-.565.164-.186.217-.32.325-.536.107-.215.054-.403-.027-.565-.081-.16-.725-1.745-.992-2.39-.263-.627-.528-.542-.725-.552l-.618-.01c-.214 0-.563.08-.858.402-.294.323-1.126 1.101-1.126 2.686s1.153 3.116 1.314 3.33c.161.215 2.27 3.467 5.499 4.861.768.331 1.368.53 1.835.678.771.245 1.473.21 2.028.128.618-.092 1.904-.779 2.173-1.53.269-.754.269-1.398.187-1.533Z"/></g><defs><clipPath id="a"><path fill="#fff" d="M0 0h26v26H0z"/></clipPath></defs></svg>
